X: 26077
T: McDermott's
R: hornpipe
M: 4/4
K: Dmajor
|:df (3edc d2B2|(3ABA GA FGEF|Dd (3ddd ce (3eee|dfed cABc|
df (3edc d2B2|(3ABA GA FGEF|DFAF GABd|1 ce (3ABc d2D2:|2 ce (3ABc d2de||
|:f2fd fgaf|g2gf gbag|f2fd fgab|agfe dcBA|
f2fd fgaf|g2gf gbag|fadf (3efe ce|1 dfed c2de:|2 dfed cABc||

